X:1
T:Elm, CM
T:Elm, CM
T:John Varley Roberts, 1889
T:Public Domain Courtesy of the Cyber Hymnal™
C:John Varley Roberts, 1889
Z:Public Domain
Z:Courtesy of the Cyber Hymnal™
%%score 1 2
L:1/8
Q:1/4=112
M:none
K:D
V:1 treble 
V:2 bass 
V:1
 [DF]2 | [CF]3 [CE] [DA]2 [DF]2 | [CF]3 [CE] [DA]2 [^DB]2 | [Ec]3 [EA] [DA]2 [D^G]2 | [CA]6 [EG]2 | %5
 [^DG]3 [DF] [EB]2 [EG]2 | [^DG]3 [DF] [EB]2 [Ec]2 | [Dd]2 [EF]2 [EF]2 [CG]2 | [DF]6 |] %9
V:2
 [D,A,]2 | [G,A,]3 [G,A,] [F,A,]2 [D,A,]2 | [G,A,]3 [G,A,] [F,A,]2 [F,A,]2 | %3
 [E,A,]3 [E,C] [E,B,]2 [E,B,]2 | [A,,A,]6 [E,B,]2 | [A,B,]3 [A,B,] [G,B,]2 [E,B,]2 | %6
 [A,B,]3 [A,B,] [G,B,]2 [G,A,]2 | [F,A,]2 [D,A,]2 [G,,B,]2 [A,,A,]2 | [D,A,]6 |] %9

